icons/outline/robot.svg

<!--
category: Games
tags: [technology, ai, machine, bot, android]
version: "1.53"
unicode: "f00b"
-->
<svg
  xmlns="http://www.w3.org/2000/svg"
  width="24"
  height="24"
  viewBox="0 0 24 24"
  fill="none"
  stroke="currentColor"
  stroke-width="2"
  stroke-linecap="round"
  stroke-linejoin="round"
>
  <path d="M6 4m0 2a2 2 0 0 1 2 -2h8a2 2 0 0 1 2 2v4a2 2 0 0 1 -2 2h-8a2 2 0 0 1 -2 -2zm6 -4v2m-3 8v9m6 -9v9m-10 -5l4 -2m6 0l4 2m-10 2h6m-5 -10v.01m4 -.01v.01" />
</svg>

<!--
category: Games
tags: [technology, ai, machine, bot, android]
version: "1.53"
unicode: "f00b"
-->
<svg
  xmlns="http://www.w3.org/2000/svg"
  width="24"
  height="24"
  viewBox="0 0 24 24"
  fill="none"
  stroke="currentColor"
  stroke-width="2"
  stroke-linecap="round"
  stroke-linejoin="round"
>
    <path d="M6 4m0 2a2 2 0 0 1 2 -2h8a2 2 0 0 1 2 2v4a2 2 0 0 1 -2 2h-8a2 2 0 0 1 -2 -2zM12 2v2M9 12v9M15 12v9M5 16l4 -2M15 14l4 2M9 18h6M10 8v.01M14 8v.01" />
</svg>
